X: 1
T: Football Loonys, The
M: 6/8
L: 1/8
R: jig
K: Amix
a2 f e2 f|d3 BAB|d3 BAB|faf e3|
a2 f e2 f|d3 BAB|d3 BAB|BdB A3:|
|: BdBBdB|A2 B d2 e|f2 a fed|efe edB|
BdB BdB|A2 B d2 e|f2 a fed|BdB A3:|
